static/img/kroki/52496343cc3b33ca8018888c468b9dc0.svg

<?xml version="1.0" encoding="us-ascii" standalone="no"?><svg xmlns="http://www.w3.org/2000/svg" xmlns:xlink="http://www.w3.org/1999/xlink" contentStyleType="text/css" height="732px" preserveAspectRatio="none" style="width:278px;height:732px;" version="1.1" viewBox="0 0 278 732" width="278px" zoomAndPan="magnify"><defs/><g><!--class kubernetes_endpoint_slice--><g id="elem_kubernetes_endpoint_slice"><rect codeLine="23" fill="#3D176E" height="39.7891" id="kubernetes_endpoint_slice" rx="2.5" ry="2.5" style="stroke:#000D19;stroke-width:0.5;" width="264" x="7" y="686.44"/><ellipse cx="22" cy="706.3345" fill="#ADD1B2" rx="11" ry="11" style="stroke:#181818;stroke-width:1.0;"/><path d="M24.9688,711.9752 Q24.3906,712.272 23.75,712.4127 Q23.1094,712.5689 22.4063,712.5689 Q19.9063,712.5689 18.5781,710.9283 Q17.2656,709.272 17.2656,706.147 Q17.2656,703.022 18.5781,701.3658 Q19.9063,699.7095 22.4063,699.7095 Q23.1094,699.7095 23.75,699.8658 Q24.4063,700.022 24.9688,700.3189 L24.9688,703.0377 Q24.3438,702.4595 23.75,702.1939 Q23.1563,701.9127 22.5313,701.9127 Q21.1875,701.9127 20.5,702.9908 Q19.8125,704.0533 19.8125,706.147 Q19.8125,708.2408 20.5,709.3189 Q21.1875,710.3814 22.5313,710.3814 Q23.1563,710.3814 23.75,710.1158 Q24.3438,709.8345 24.9688,709.2564 L24.9688,711.9752 Z " fill="#000000"/><text fill="#D9B8FF" font-family="Helvetica" font-size="17" lengthAdjust="spacing" textLength="222" x="41" y="712.2198">kubernetes_endpoint_slice</text></g><!--class kubernetes_resource--><g id="elem_kubernetes_resource"><rect codeLine="26" fill="#3D176E" height="126.6797" id="kubernetes_resource" rx="2.5" ry="2.5" style="stroke:#000D19;stroke-width:0.5;" width="239" x="19.5" y="438.76"/><ellipse cx="44.85" cy="458.6545" fill="#ADD1B2" rx="11" ry="11" style="stroke:#181818;stroke-width:1.0;"/><path d="M47.8188,464.2952 Q47.2406,464.592 46.6,464.7327 Q45.9594,464.8889 45.2563,464.8889 Q42.7563,464.8889 41.4281,463.2483 Q40.1156,461.592 40.1156,458.467 Q40.1156,455.342 41.4281,453.6858 Q42.7563,452.0295 45.2563,452.0295 Q45.9594,452.0295 46.6,452.1858 Q47.2563,452.342 47.8188,452.6389 L47.8188,455.3577 Q47.1938,454.7795 46.6,454.5139 Q46.0063,454.2327 45.3813,454.2327 Q44.0375,454.2327 43.35,455.3108 Q42.6625,456.3733 42.6625,458.467 Q42.6625,460.5608 43.35,461.6389 Q44.0375,462.7014 45.3813,462.7014 Q46.0063,462.7014 46.6,462.4358 Q47.1938,462.1545 47.8188,461.5764 L47.8188,464.2952 Z " fill="#000000"/><text fill="#D9B8FF" font-family="Helvetica" font-size="17" lengthAdjust="spacing" textLength="174" x="66.15" y="464.5398">kubernetes_resource</text><line style="stroke:#000D19;stroke-width:0.5;" x1="20.5" x2="257.5" y1="478.5491" y2="478.5491"/><text fill="#D9B8FF" font-family="sans-serif" font-size="14" font-weight="bold" lengthAdjust="spacing" textLength="46" x="30.5" y="500.5442">labels</text><text fill="#D9B8FF" font-family="sans-serif" font-size="14" lengthAdjust="spacing" textLength="171" x="76.5" y="500.5442">: dictionary[string, string]</text><text fill="#D9B8FF" font-family="sans-serif" font-size="14" font-weight="bold" lengthAdjust="spacing" textLength="90" x="30.5" y="526.8411">namespace</text><text fill="#D9B8FF" font-family="sans-serif" font-size="14" lengthAdjust="spacing" textLength="48" x="120.5" y="526.8411">: string</text><text fill="#D9B8FF" font-family="sans-serif" font-size="14" font-weight="bold" lengthAdjust="spacing" textLength="138" x="30.5" y="553.1379">resource_version</text><text fill="#D9B8FF" font-family="sans-serif" font-size="14" lengthAdjust="spacing" textLength="48" x="168.5" y="553.1379">: string</text></g><!--class resource--><g id="elem_resource"><rect codeLine="31" fill="#3D176E" height="310.7578" id="resource" rx="2.5" ry="2.5" style="stroke:#000D19;stroke-width:0.5;" width="227" x="25.5" y="7"/><ellipse cx="94.25" cy="26.8945" fill="#ADD1B2" rx="11" ry="11" style="stroke:#181818;stroke-width:1.0;"/><path d="M97.2188,32.5352 Q96.6406,32.832 96,32.9727 Q95.3594,33.1289 94.6563,33.1289 Q92.1563,33.1289 90.8281,31.4883 Q89.5156,29.832 89.5156,26.707 Q89.5156,23.582 90.8281,21.9258 Q92.1563,20.2695 94.6563,20.2695 Q95.3594,20.2695 96,20.4258 Q96.6563,20.582 97.2188,20.8789 L97.2188,23.5977 Q96.5938,23.0195 96,22.7539 Q95.4063,22.4727 94.7813,22.4727 Q93.4375,22.4727 92.75,23.5508 Q92.0625,24.6133 92.0625,26.707 Q92.0625,28.8008 92.75,29.8789 Q93.4375,30.9414 94.7813,30.9414 Q95.4063,30.9414 96,30.6758 Q96.5938,30.3945 97.2188,29.8164 L97.2188,32.5352 Z " fill="#000000"/><text fill="#D9B8FF" font-family="Helvetica" font-size="17" lengthAdjust="spacing" textLength="71" x="119.75" y="32.7798">resource</text><line style="stroke:#000D19;stroke-width:0.5;" x1="26.5" x2="251.5" y1="46.7891" y2="46.7891"/><text fill="#D9B8FF" font-family="sans-serif" font-size="14" font-weight="bold" lengthAdjust="spacing" textLength="29" x="36.5" y="68.7842">age</text><text fill="#D9B8FF" font-family="sans-serif" font-size="14" lengthAdjust="spacing" textLength="66" x="65.5" y="68.7842">: duration</text><text fill="#D9B8FF" font-family="sans-serif" font-size="14" font-weight="bold" lengthAdjust="spacing" textLength="43" x="36.5" y="95.0811">atime</text><text fill="#D9B8FF" font-family="sans-serif" font-size="14" lengthAdjust="spacing" textLength="70" x="79.5" y="95.0811">: datetime</text><text fill="#D9B8FF" font-family="sans-serif" font-size="14" font-weight="bold" lengthAdjust="spacing" textLength="43" x="36.5" y="121.3779">ctime</text><text fill="#D9B8FF" font-family="sans-serif" font-size="14" lengthAdjust="spacing" textLength="70" x="79.5" y="121.3779">: datetime</text><text fill="#D9B8FF" font-family="sans-serif" font-size="14" font-weight="bold" lengthAdjust="spacing" textLength="14" x="36.5" y="147.6748">id</text><text fill="#D9B8FF" font-family="sans-serif" font-size="14" lengthAdjust="spacing" textLength="48" x="50.5" y="147.6748">: string</text><text fill="#D9B8FF" font-family="sans-serif" font-size="14" font-weight="bold" lengthAdjust="spacing" textLength="33" x="36.5" y="173.9717">kind</text><text fill="#D9B8FF" font-family="sans-serif" font-size="14" lengthAdjust="spacing" textLength="48" x="69.5" y="173.9717">: string</text><text fill="#D9B8FF" font-family="sans-serif" font-size="14" font-weight="bold" lengthAdjust="spacing" textLength="90" x="36.5" y="200.2686">last_access</text><text fill="#D9B8FF" font-family="sans-serif" font-size="14" lengthAdjust="spacing" textLength="66" x="126.5" y="200.2686">: duration</text><text fill="#D9B8FF" font-family="sans-serif" font-size="14" font-weight="bold" lengthAdjust="spacing" textLength="90" x="36.5" y="226.5654">last_update</text><text fill="#D9B8FF" font-family="sans-serif" font-size="14" lengthAdjust="spacing" textLength="66" x="126.5" y="226.5654">: duration</text><text fill="#D9B8FF" font-family="sans-serif" font-size="14" font-weight="bold" lengthAdjust="spacing" textLength="48" x="36.5" y="252.8623">mtime</text><text fill="#D9B8FF" font-family="sans-serif" font-size="14" lengthAdjust="spacing" textLength="70" x="84.5" y="252.8623">: datetime</text><text fill="#D9B8FF" font-family="sans-serif" font-size="14" font-weight="bold" lengthAdjust="spacing" textLength="43" x="36.5" y="279.1592">name</text><text fill="#D9B8FF" font-family="sans-serif" font-size="14" lengthAdjust="spacing" textLength="48" x="79.5" y="279.1592">: string</text><text fill="#D9B8FF" font-family="sans-serif" font-size="14" font-weight="bold" lengthAdjust="spacing" textLength="34" x="36.5" y="305.4561">tags</text><text fill="#D9B8FF" font-family="sans-serif" font-size="14" lengthAdjust="spacing" textLength="171" x="70.5" y="305.4561">: dictionary[string, string]</text></g><!--reverse link kubernetes_resource to kubernetes_endpoint_slice--><g id="link_kubernetes_resource_kubernetes_endpoint_slice"><path codeLine="43" d="M139,583.7 C139,625.23 139,658.95 139,686.31 " fill="none" id="kubernetes_resource-backto-kubernetes_endpoint_slice" style="stroke:#FFAF37;stroke-width:2.0;"/><polygon fill="none" points="139,565.7,133,583.7,145,583.7,139,565.7" style="stroke:#FFAF37;stroke-width:2.0;"/></g><!--reverse link resource to kubernetes_resource--><g id="link_resource_kubernetes_resource"><path codeLine="44" d="M139,335.91 C139,378.46 139,404.24 139,438.32 " fill="none" id="resource-backto-kubernetes_resource" style="stroke:#FFAF37;stroke-width:2.0;"/><polygon fill="none" points="139,317.91,133,335.91,145,335.91,139,317.91" style="stroke:#FFAF37;stroke-width:2.0;"/></g><!--SRC=[XPFBJiCm44Nt-GfBx2egjI0eHMoW4e9DXIWxXAgfFKcj9dOqdhGgZt_7RWZAeuzLedkFvyvCdALMA33BUIiop1P8Bd8hRN8WoCGzaTrCR6f9dCKnn9UZjlbe3Py4ff2XUC9qZQmbj8ctfPOhWyw9Yvhr07ALa2sCAiipWN7UGiCrQfA2S_VCf1S5OwqPDLxSn76RR1SzkrJ3qJLsC4iAwGyP30PgE6uZ9wEEplrFpFGdYc5zQLFBs6cp4x6ZZdOPY5gJdK4h_s2FBw2KDecugcclPKzaa1hwR0dARW8TG-hgCOwHqF8snqbdAXpVg7Yq5tu-14Soh4wi2dzJ3JAwEHgLMsruxb8jKNn5qKyN8dIse9tTwwMmmDJrUhT2QSdQ6g3jk_Dto2Jdedn-UCpupVWR9p6GfUpLgj9yxNyLVxPcLhcDC4XsvrL14AA2mZehDM0CxrwJUpIj6i5-Iqt1P_4SfFH_JYjXvnHvgDLoiZqvOSv6OORar7P-edtBlVlkz_k7lqrq6AoSw1S0]--></g></svg>

<svg xmlns="http://www.w3.org/2000/svg" width="278" height="732" viewBox="0 0 278 732"><rect width="264" height="39.789" x="7" y="686.44" fill="#3D176E" rx="2.5" ry="2.5" style="stroke:#000d19;stroke-width:.5"/><circle cx="22" cy="706.335" r="11" fill="#ADD1B2" style="stroke:#181818;stroke-width:1"/><path d="M24.969 711.975q-.578.297-1.219.438-.64.156-1.344.156-2.5 0-3.828-1.64-1.312-1.657-1.312-4.782t1.312-4.781q1.328-1.656 3.828-1.656.703 0 1.344.156.656.156 1.219.453v2.719q-.625-.578-1.219-.844-.594-.281-1.219-.281-1.343 0-2.031 1.078-.687 1.062-.687 3.156t.687 3.172q.688 1.062 2.031 1.062.625 0 1.219-.265.594-.281 1.219-.86z"/><text x="41" y="712.22" fill="#D9B8FF" font-family="Helvetica" font-size="17" textLength="222">kubernetes_endpoint_slice</text><rect width="239" height="126.68" x="19.5" y="438.76" fill="#3D176E" rx="2.5" ry="2.5" style="stroke:#000d19;stroke-width:.5"/><circle cx="44.85" cy="458.654" r="11" fill="#ADD1B2" style="stroke:#181818;stroke-width:1"/><path d="M47.819 464.295q-.578.297-1.219.438-.64.156-1.344.156-2.5 0-3.828-1.64-1.312-1.657-1.312-4.782t1.312-4.781q1.328-1.656 3.828-1.656.703 0 1.344.156.656.156 1.219.453v2.719q-.625-.579-1.219-.844-.594-.281-1.219-.281-1.343 0-2.031 1.078-.687 1.062-.687 3.156t.687 3.172q.688 1.062 2.031 1.062.625 0 1.219-.265.594-.281 1.219-.86z"/><text x="66.15" y="464.54" fill="#D9B8FF" font-family="Helvetica" font-size="17" textLength="174">kubernetes_resource</text><path d="M20.5 478.549h237" style="stroke:#000d19;stroke-width:.5"/><text x="30.5" y="500.544" fill="#D9B8FF" font-family="sans-serif" font-size="14" font-weight="bold" textLength="46">labels</text><text x="76.5" y="500.544" fill="#D9B8FF" font-family="sans-serif" font-size="14" textLength="171">: dictionary[string, string]</text><text x="30.5" y="526.841" fill="#D9B8FF" font-family="sans-serif" font-size="14" font-weight="bold" textLength="90">namespace</text><text x="120.5" y="526.841" fill="#D9B8FF" font-family="sans-serif" font-size="14" textLength="48">: string</text><text x="30.5" y="553.138" fill="#D9B8FF" font-family="sans-serif" font-size="14" font-weight="bold" textLength="138">resource_version</text><text x="168.5" y="553.138" fill="#D9B8FF" font-family="sans-serif" font-size="14" textLength="48">: string</text><rect width="227" height="310.758" x="25.5" y="7" fill="#3D176E" rx="2.5" ry="2.5" style="stroke:#000d19;stroke-width:.5"/><circle cx="94.25" cy="26.895" r="11" fill="#ADD1B2" style="stroke:#181818;stroke-width:1"/><path d="M97.219 32.535q-.578.297-1.219.438-.64.156-1.344.156-2.5 0-3.828-1.64-1.312-1.657-1.312-4.782t1.312-4.781q1.328-1.656 3.828-1.656.703 0 1.344.156.656.156 1.219.453v2.719q-.625-.578-1.219-.844-.594-.281-1.219-.281-1.344 0-2.031 1.078-.687 1.062-.687 3.156t.687 3.172q.688 1.062 2.031 1.062.625 0 1.219-.265.594-.281 1.219-.86z"/><text x="119.75" y="32.78" fill="#D9B8FF" font-family="Helvetica" font-size="17" textLength="71">resource</text><path d="M26.5 46.789h225" style="stroke:#000d19;stroke-width:.5"/><text x="36.5" y="68.784" fill="#D9B8FF" font-family="sans-serif" font-size="14" font-weight="bold" textLength="29">age</text><text x="65.5" y="68.784" fill="#D9B8FF" font-family="sans-serif" font-size="14" textLength="66">: duration</text><text x="36.5" y="95.081" fill="#D9B8FF" font-family="sans-serif" font-size="14" font-weight="bold" textLength="43">atime</text><text x="79.5" y="95.081" fill="#D9B8FF" font-family="sans-serif" font-size="14" textLength="70">: datetime</text><text x="36.5" y="121.378" fill="#D9B8FF" font-family="sans-serif" font-size="14" font-weight="bold" textLength="43">ctime</text><text x="79.5" y="121.378" fill="#D9B8FF" font-family="sans-serif" font-size="14" textLength="70">: datetime</text><text x="36.5" y="147.675" fill="#D9B8FF" font-family="sans-serif" font-size="14" font-weight="bold" textLength="14">id</text><text x="50.5" y="147.675" fill="#D9B8FF" font-family="sans-serif" font-size="14" textLength="48">: string</text><text x="36.5" y="173.972" fill="#D9B8FF" font-family="sans-serif" font-size="14" font-weight="bold" textLength="33">kind</text><text x="69.5" y="173.972" fill="#D9B8FF" font-family="sans-serif" font-size="14" textLength="48">: string</text><text x="36.5" y="200.269" fill="#D9B8FF" font-family="sans-serif" font-size="14" font-weight="bold" textLength="90">last_access</text><text x="126.5" y="200.269" fill="#D9B8FF" font-family="sans-serif" font-size="14" textLength="66">: duration</text><text x="36.5" y="226.565" fill="#D9B8FF" font-family="sans-serif" font-size="14" font-weight="bold" textLength="90">last_update</text><text x="126.5" y="226.565" fill="#D9B8FF" font-family="sans-serif" font-size="14" textLength="66">: duration</text><text x="36.5" y="252.862" fill="#D9B8FF" font-family="sans-serif" font-size="14" font-weight="bold" textLength="48">mtime</text><text x="84.5" y="252.862" fill="#D9B8FF" font-family="sans-serif" font-size="14" textLength="70">: datetime</text><text x="36.5" y="279.159" fill="#D9B8FF" font-family="sans-serif" font-size="14" font-weight="bold" textLength="43">name</text><text x="79.5" y="279.159" fill="#D9B8FF" font-family="sans-serif" font-size="14" textLength="48">: string</text><text x="36.5" y="305.456" fill="#D9B8FF" font-family="sans-serif" font-size="14" font-weight="bold" textLength="34">tags</text><text x="70.5" y="305.456" fill="#D9B8FF" font-family="sans-serif" font-size="14" textLength="171">: dictionary[string, string]</text><path fill="none" d="M139 583.7v102.61m0-120.61-6 18h12zm0-229.79v102.41m0-120.41-6 18h12z" style="stroke:#ffaf37;stroke-width:2"/></svg>
